media/img/firefox/new/desktop/color-ways.svg

<svg width="65" height="65" viewBox="0 0 65 65" fill="none" xmlns="http://www.w3.org/2000/svg">
<g clip-path="url(#clip0_972:16871)">
<path d="M0 33.6842C0.000952687 28.3587 1.40504 23.1275 4.07086 18.5173C6.73668 13.907 10.5701 10.0805 15.1852 7.4231L30.347 33.6842H0Z" fill="#CB9EFF"/>
<path d="M15.1853 7.42316C19.7899 4.74654 25.0211 3.33678 30.3471 3.33716C35.6732 3.33683 40.9044 4.74662 45.5091 7.42326L30.3471 33.6843L15.1853 7.42316Z" fill="#C689FF"/>
<path d="M15.1852 59.9455C10.5701 57.288 6.73671 53.4615 4.07089 48.8513C1.40508 44.2411 0.000982407 39.0098 0 33.6843H30.347L15.1852 59.9455Z" fill="#592ACB"/>
<path d="M45.5089 7.42322C50.124 10.0806 53.9574 13.9071 56.6232 18.5173C59.289 23.1275 60.6931 28.3587 60.6941 33.6842H30.3469L45.5089 7.42322Z" fill="#AB71FF"/>
<path d="M15.1853 59.9455L30.3471 33.6843L45.509 59.9453C40.9044 62.6219 35.6732 64.0316 30.3471 64.0313C25.0211 64.0317 19.7899 62.622 15.1853 59.9455V59.9455Z" fill="#7542E5"/>
<path d="M60.694 33.6843C60.693 39.0098 59.289 44.241 56.6231 48.8512C53.9573 53.4614 50.1239 57.2879 45.5089 59.9453L30.3469 33.6843H60.694Z" fill="#9059FF"/>
<path d="M52.2723 28.1015C49.8231 32.3721 45.9175 34.718 43.5489 33.3412C41.1802 31.9645 41.2455 27.3865 43.6946 23.1159L53.7204 5.63378C56.1696 1.36324 60.0752 -0.982689 62.4438 0.394091C64.8125 1.77076 64.7472 6.34886 62.2981 10.6194L52.2723 28.1015Z" fill="#9059FF"/>
<path d="M62.4437 0.394043L43.5488 33.3412C45.9174 34.7179 49.8231 32.372 52.2722 28.1015L62.298 10.6193C64.7472 6.34884 64.8124 1.77074 62.4437 0.394043Z" fill="#592ACB"/>
<path d="M31.1103 45.059C30.6455 45.8737 30.4193 46.8028 30.4574 47.74C30.4955 48.6772 30.7965 49.5848 31.3259 50.359L29.0564 54.3163C28.7733 54.8094 28.6965 55.3945 28.8428 55.944C28.989 56.4934 29.3465 56.9629 29.8373 57.25V57.25C30.08 57.3909 30.3481 57.4824 30.6263 57.5191C30.9045 57.5558 31.1872 57.5371 31.4581 57.464C31.729 57.391 31.9828 57.265 32.2048 57.0933C32.4267 56.9217 32.6125 56.7078 32.7514 56.464L35.0209 52.5067C35.9522 52.5807 36.8853 52.3885 37.7116 51.9526C38.5378 51.5167 39.2232 50.855 39.6879 50.0446L49.5138 32.9113L40.9361 27.9257L31.1103 45.059Z" fill="#CB9EFF"/>
<path d="M52.7977 27.5575L52.6377 27.4645L49.5139 32.9114L49.6739 33.0044C50.3658 33.31 51.1502 33.3306 51.8573 33.0619C52.5643 32.7931 53.1369 32.2566 53.4511 31.5686C53.8856 30.9464 54.0604 30.1794 53.9384 29.4304C53.8164 28.6814 53.4072 28.0095 52.7977 27.5575Z" fill="#D9BFFF"/>
<path d="M43.5041 22.1557C42.8122 21.8501 42.0278 21.8294 41.3208 22.0981C40.6137 22.3669 40.0411 22.9034 39.7269 23.5915C39.2924 24.2136 39.1176 24.9807 39.2396 25.7297C39.3616 26.4786 39.7709 27.1505 40.3804 27.6026L40.9362 27.9257L44.06 22.4788L43.5041 22.1557Z" fill="#D9BFFF"/>
<path d="M44.06 22.479L40.936 27.926L49.514 32.911L52.638 27.464L44.06 22.479Z" fill="#D9BFFF"/>
<path d="M34.0668 47.5744C33.9973 47.6963 33.9044 47.8032 33.7934 47.8891C33.6824 47.9749 33.5556 48.0379 33.4201 48.0745C33.2846 48.111 33.1433 48.1203 33.0042 48.102C32.8651 48.0836 32.731 48.0379 32.6096 47.9674V47.9674C32.3643 47.8239 32.1856 47.5891 32.1124 47.3144C32.0393 47.0397 32.0777 46.7472 32.2192 46.5006L39.5334 33.7468C39.6028 33.6249 39.6958 33.518 39.8067 33.4321C39.9177 33.3463 40.0446 33.2833 40.1801 33.2468C40.3155 33.2102 40.4569 33.2009 40.596 33.2192C40.7351 33.2376 40.8692 33.2833 40.9905 33.3538C41.2359 33.4974 41.4146 33.7321 41.4877 34.0069C41.5608 34.2816 41.5225 34.5741 41.3809 34.8207L34.0668 47.5744Z" fill="#E7DFFF"/>
</g>
<defs>
<clipPath id="clip0_972:16871">
<rect width="64.1785" height="64.0313" fill="white"/>
</clipPath>
</defs>
</svg>

<svg width="65" height="65" fill="none" xmlns="http://www.w3.org/2000/svg"><g clip-path="url(#a)"><path d="M0 33.684a30.31 30.31 0 0 1 15.185-26.26l15.162 26.26H0Z" fill="#CB9EFF"/><path d="M15.185 7.423a30.165 30.165 0 0 1 30.324 0L30.347 33.684 15.185 7.424Z" fill="#C689FF"/><path d="M15.185 59.946A30.31 30.31 0 0 1 0 33.684h30.347L15.185 59.946Z" fill="#592ACB"/><path d="M45.509 7.423a30.31 30.31 0 0 1 15.185 26.261H30.347l15.162-26.26Z" fill="#AB71FF"/><path d="m15.185 59.946 15.162-26.262L45.51 59.945a30.166 30.166 0 0 1-30.324 0Z" fill="#7542E5"/><path d="M60.694 33.684a30.31 30.31 0 0 1-15.185 26.261l-15.162-26.26h30.347Z" fill="#9059FF"/><path d="M52.272 28.102c-2.449 4.27-6.355 6.616-8.723 5.24-2.369-1.377-2.303-5.955.146-10.226L53.72 5.634c2.45-4.27 6.355-6.617 8.724-5.24 2.368 1.377 2.303 5.955-.146 10.225L52.272 28.102Z" fill="#9059FF"/><path d="M62.444.394 43.549 33.341c2.368 1.377 6.274-.969 8.723-5.24L62.298 10.62c2.45-4.27 2.514-8.848.146-10.225Z" fill="#592ACB"/><path d="M31.11 45.059a5 5 0 0 0 .216 5.3l-2.27 3.957a2.155 2.155 0 0 0 .781 2.934 2.125 2.125 0 0 0 2.914-.786l2.27-3.957a4.93 4.93 0 0 0 4.667-2.462l9.826-17.134-8.578-4.985-9.826 17.133Z" fill="#CB9EFF"/><path d="m52.798 27.558-.16-.093-3.124 5.446.16.093a2.876 2.876 0 0 0 3.777-1.435 2.916 2.916 0 0 0-.653-4.011ZM43.504 22.156a2.875 2.875 0 0 0-3.777 1.436 2.916 2.916 0 0 0 .653 4.01l.556.324 3.124-5.447-.556-.323ZM44.06 22.479l-3.124 5.447 8.578 4.985 3.124-5.447-8.578-4.985Z" fill="#D9BFFF"/><path d="M34.067 47.574a1.065 1.065 0 0 1-1.457.393 1.078 1.078 0 0 1-.39-1.466l7.313-12.754a1.064 1.064 0 0 1 1.955.26c.073.275.035.567-.107.814l-7.314 12.753Z" fill="#E7DFFF"/></g><defs><clipPath id="a"><path fill="#fff" d="M0 0h64.178v64.031H0z"/></clipPath></defs></svg>
